X: 338
T: Will you marry Kitty
%R: reel
Z: 2014 John Chambers <jc:trillian.mit.edu>
B: Preston "Twenty four Country Dances for the Year 1798" p.149 #2
F: http://www.vwml.org/browse/browse-collections-dance-tune-books/browse-prestons1798# 2014-8-10
M: C|
L: 1/8
K: G
|:\
G/G/GG2 BABg | G/G/GG2 dBA2 |\
G/G/GG2 BABd | egdg BgA2 :|
|:\
(B/c/d) de gded | (B/c/d) de gBA2 |\
 B/c/d  de gded | (3(cdc) (3(BcB) gBA2 :|
% - - - - - - - - - - - - - - - - - - - - - - - - -
%%begintext align
%% 1st Lady sett to the 2d Gent.n and turn the 3d
%% Gent.n .| 1st Gent.n sett to the 2d Lady and turn
%% the 3d Lady :| Cross over one Cu :| foot it and turn
%% your Partner
%%endtext
% - - - - - - - - - - - - - - - - - - - - - - - - -

%%sep 1 1 500
%%sep 1 1 500
